X:1024
T:no name
R:reel
S:Anna Lindblad
O:Quebec
Z:id:hn-reel-1024
M:C|
L:1/8
K:Edor
EFGA BE~E2 | EFGB ADED | EFGA B2BB | AFAd BE~E2 :|
e2 (3gfe bege | defg af~f2 | e2 (3gfe bege | dBBA Bcdf |
e2 (3gfe bege | defg a3f | (3gfe fd edBc | dBAF FEE2 ||

